app/assets/images/icons/close.svg

<?xml version="1.0" encoding="UTF-8"?>
<svg width="16px" height="16px" viewBox="0 0 16 16" version="1.1" xmlns="http://www.w3.org/2000/svg" xmlns:xlink="http://www.w3.org/1999/xlink">
    <title>icon</title>
    <g id="icon" stroke="none" stroke-width="1" fill="none" fill-rule="evenodd">
        <path d="M2.81092662,16 L13.1890734,16 C15.0401714,16 16,15.0401714 16,13.2147831 L16,2.78521693 C16,0.951258704 15.0401714,0 13.1890734,0 L2.81092662,0 C0.959828602,0 0,0.951258704 0,2.78521693 L0,13.2147831 C0,15.0487413 0.959828602,16 2.81092662,16 Z M5.21049813,11.620782 C4.75629352,11.620782 4.40492769,11.2608463 4.40492769,10.7980718 C4.40492769,10.5923942 4.49062667,10.3952866 4.64488484,10.2410284 L6.88162828,7.99571505 L4.64488484,5.75897161 C4.49062667,5.60471344 4.40492769,5.40760578 4.40492769,5.19335833 C4.40492769,4.73915372 4.75629352,4.39635779 5.21049813,4.39635779 C5.44188538,4.39635779 5.62185324,4.47348688 5.77611141,4.62774505 L8.02142475,6.86448848 L10.2838779,4.61917515 C10.4467059,4.45634708 10.6266738,4.379218 10.8580611,4.379218 C11.3036958,4.379218 11.6550616,4.73058382 11.6550616,5.18478843 C11.6550616,5.39903589 11.5865024,5.58757365 11.4236743,5.75040171 L9.17836101,7.99571505 L11.4151044,10.2324585 C11.5693626,10.3867167 11.6550616,10.5838243 11.6550616,10.7980718 C11.6550616,11.2608463 11.2951259,11.620782 10.8409213,11.620782 C10.609534,11.620782 10.4038565,11.535083 10.2581682,11.3808249 L8.02142475,9.14408141 L5.8018211,11.3808249 C5.63899304,11.535083 5.44188538,11.620782 5.21049813,11.620782 Z" id="Shape" fill="#000000" fill-rule="nonzero"></path>
    </g>
</svg>

<svg width="16" height="16" xmlns="http://www.w3.org/2000/svg">
    <path d="M2.81 16h10.38c1.85 0 2.81-.96 2.81-2.785V2.785C16 .951 15.04 0 13.19 0H2.81C.96 0 0 .951 0 2.785v10.43C0 15.049.96 16 2.81 16Zm2.4-4.38a.803.803 0 0 1-.805-.822c0-.206.086-.403.24-.557l2.237-2.245-2.237-2.237a.792.792 0 0 1-.24-.566c0-.454.351-.797.805-.797.232 0 .412.077.566.232l2.245 2.236 2.263-2.245a.764.764 0 0 1 .574-.24c.446 0 .797.352.797.806a.763.763 0 0 1-.231.565L9.178 7.996l2.237 2.236a.81.81 0 0 1-.574 1.388.788.788 0 0 1-.583-.24L8.021 9.145l-2.22 2.237a.836.836 0 0 1-.59.24Z"/>
</svg>
